src/assets/pin.svg

<svg class="max-lg:w-5" xmlns="http://www.w3.org/2000/svg" height="40" viewBox="0 0 35 48" fill="none">
    <path
        d="M17.0747 0.285156C7.64702 0.285156 0 7.71976 0 16.8855C0 29.3358 17.0747 47.7148 17.0747 47.7148C17.0747 47.7148 34.1494 29.3358 34.1494 16.8855C34.1494 7.71976 26.5024 0.285156 17.0747 0.285156ZM17.0747 22.8143C13.7085 22.8143 10.9766 20.1582 10.9766 16.8855C10.9766 13.6129 13.7085 10.9568 17.0747 10.9568C20.4408 10.9568 23.1728 13.6129 23.1728 16.8855C23.1728 20.1582 20.4408 22.8143 17.0747 22.8143Z"
        fill="white" />
</svg>

<svg xmlns="http://www.w3.org/2000/svg" height="40" fill="none" class="max-lg:w-5" viewBox="0 0 35 48"><path fill="#fff" d="M17.075.285C7.647.285 0 7.72 0 16.885c0 12.45 17.075 30.83 17.075 30.83s17.074-18.38 17.074-30.83c0-9.165-7.647-16.6-17.074-16.6m0 22.53c-3.366 0-6.098-2.657-6.098-5.93s2.732-5.928 6.098-5.928 6.098 2.656 6.098 5.929c0 3.272-2.732 5.928-6.098 5.928"/></svg>
